icon.svg

<?xml version="1.0" encoding="UTF-8" standalone="no"?>
<!-- Created with Inkscape (http://www.inkscape.org/) -->

<svg
   width="64"
   height="64"
   viewBox="0 0 64 63.999997"
   version="1.1"
   id="svg1"
   inkscape:version="1.3.2 (091e20e, 2023-11-25, custom)"
   xml:space="preserve"
   inkscape:export-filename="icon.svg"
   inkscape:export-xdpi="768"
   inkscape:export-ydpi="768"
   sodipodi:docname="icon.svg"
   xmlns:inkscape="http://www.inkscape.org/namespaces/inkscape"
   xmlns:sodipodi="http://sodipodi.sourceforge.net/DTD/sodipodi-0.dtd"
   xmlns:xlink="http://www.w3.org/1999/xlink"
   xmlns="http://www.w3.org/2000/svg"
   xmlns:svg="http://www.w3.org/2000/svg"><sodipodi:namedview
     id="namedview1"
     pagecolor="#ffffff"
     bordercolor="#000000"
     borderopacity="0.25"
     inkscape:showpageshadow="2"
     inkscape:pageopacity="0.0"
     inkscape:pagecheckerboard="0"
     inkscape:deskcolor="#d1d1d1"
     showgrid="false"
     inkscape:zoom="5.5375424"
     inkscape:cx="53.453315"
     inkscape:cy="50.02219"
     inkscape:window-width="1450"
     inkscape:window-height="1250"
     inkscape:window-x="549"
     inkscape:window-y="64"
     inkscape:window-maximized="0"
     inkscape:current-layer="svg1"><inkscape:grid
       id="grid1"
       units="px"
       originx="0"
       originy="0"
       spacingx="1"
       spacingy="0.99999996"
       empcolor="#0099e5"
       empopacity="0.30196078"
       color="#0099e5"
       opacity="0.14901961"
       empspacing="2"
       dotted="false"
       gridanglex="30"
       gridanglez="30"
       visible="false" /></sodipodi:namedview><defs
     id="defs1"><linearGradient
       id="linearGradient1"
       inkscape:collect="always"><stop
         style="stop-color:#fff034;stop-opacity:1;"
         offset="0"
         id="stop1" /><stop
         style="stop-color:#ffb40c;stop-opacity:1;"
         offset="1"
         id="stop2" /></linearGradient><linearGradient
       inkscape:collect="always"
       xlink:href="#linearGradient1"
       id="linearGradient2"
       x1="32"
       y1="0"
       x2="32"
       y2="63.999996"
       gradientUnits="userSpaceOnUse" /><filter
       inkscape:collect="always"
       style="color-interpolation-filters:sRGB"
       id="filter8"
       x="-0.10125"
       y="-0.11571429"
       width="1.2025"
       height="1.2314286"><feGaussianBlur
         inkscape:collect="always"
         stdDeviation="2.025"
         id="feGaussianBlur8" /></filter><filter
       inkscape:collect="always"
       style="color-interpolation-filters:sRGB"
       id="filter16"
       x="-0.10125"
       y="-0.11571429"
       width="1.2025"
       height="1.2314286"><feGaussianBlur
         inkscape:collect="always"
         stdDeviation="2.025"
         id="feGaussianBlur16" /></filter></defs><rect
     style="fill:url(#linearGradient2);stroke:none;stroke-width:2.6;stroke-linecap:round;stroke-miterlimit:5;stroke-dasharray:none;stroke-opacity:1;paint-order:markers fill stroke"
     id="rect1"
     width="64"
     height="63.999996"
     x="0"
     y="0" /><g
     id="g17"
     inkscape:label="flare"><path
       style="mix-blend-mode:overlay;vector-effect:non-scaling-stroke;fill:#ffffff;fill-opacity:0.529412;stroke:none;stroke-width:1;stroke-linecap:round;stroke-linejoin:round;stroke-miterlimit:5;stroke-dasharray:none;stroke-opacity:1;-inkscape-stroke:hairline;paint-order:markers fill stroke"
       d="M 32,32 44,-20 H 20 Z"
       id="path9"
       inkscape:transform-center-y="-26"
       inkscape:transform-center-x="0.00390625" /><path
       style="mix-blend-mode:overlay;vector-effect:non-scaling-stroke;fill:#ffffff;fill-opacity:0.529412;stroke:none;stroke-width:1;stroke-linecap:round;stroke-linejoin:round;stroke-miterlimit:5;stroke-dasharray:none;stroke-opacity:1;-inkscape-stroke:hairline;paint-order:markers fill stroke"
       d="M 32.002705,31.996283 85.172624,27.418108 77.789724,4.5818915 Z"
       id="path10"
       inkscape:transform-center-y="-13.710913"
       inkscape:transform-center-x="-26.583758" /><path
       style="mix-blend-mode:overlay;vector-effect:non-scaling-stroke;fill:#ffffff;fill-opacity:0.529412;stroke:none;stroke-width:1;stroke-linecap:round;stroke-linejoin:round;stroke-miterlimit:5;stroke-dasharray:none;stroke-opacity:1;-inkscape-stroke:hairline;paint-order:markers fill stroke"
       d="M 32.006986,31.997597 54.540018,80.373856 73.459982,65.60785 Z"
       id="path12"
       inkscape:transform-center-y="24.185726"
       inkscape:transform-center-x="-20.729577" /><path
       style="mix-blend-mode:overlay;vector-effect:non-scaling-stroke;fill:#ffffff;fill-opacity:0.529412;stroke:none;stroke-width:1;stroke-linecap:round;stroke-linejoin:round;stroke-miterlimit:5;stroke-dasharray:none;stroke-opacity:1;-inkscape-stroke:hairline;paint-order:markers fill stroke"
       d="M 32.007067,32.002297 -8.2728576,67.009834 11.140774,81.120499 Z"
       id="path13"
       inkscape:transform-center-y="24.561397"
       inkscape:transform-center-x="20.136802" /><path
       style="mix-blend-mode:overlay;vector-effect:non-scaling-stroke;fill:#ffffff;fill-opacity:0.529412;stroke:none;stroke-width:1;stroke-linecap:round;stroke-linejoin:round;stroke-miterlimit:5;stroke-dasharray:none;stroke-opacity:1;-inkscape-stroke:hairline;paint-order:markers fill stroke"
       d="M 32.002705,32.003718 -13.780194,4.5824467 -21.166525,27.417553 Z"
       id="path14"
       inkscape:transform-center-y="-13.706919"
       inkscape:transform-center-x="26.585817" /></g><g
     id="g14"
     inkscape:label="round"
     style="display:none"><path
       id="path8"
       style="color:#000000;mix-blend-mode:normal;fill:#000000;fill-opacity:0.2;stroke-linecap:round;stroke-linejoin:round;stroke-miterlimit:5;-inkscape-stroke:none;paint-order:markers fill stroke;filter:url(#filter8)"
       d="m 26,12.999987 a 3.0003,3.0003 0 0 0 -3,3 h -3 a 3.0003,3.0003 0 0 0 -3,3 3.0003,3.0003 0 0 0 -3,3 3.0003,3.0003 0 0 0 -3,3 v 6 a 3.0003,3.0003 0 0 0 -3,3 v 6 a 3.0003,3.0003 0 0 0 3,3 3.0003,3.0003 0 0 0 3,3 3.0003,3.0003 0 0 0 3,3 3.0003,3.0003 0 0 0 3,3 3.0003,3.0003 0 0 0 3,3 h 18 a 3.0003,3.0003 0 0 0 3,-3 3.0003,3.0003 0 0 0 3,-3 3.0003,3.0003 0 0 0 3,-3 3.0003,3.0003 0 0 0 3,-3 3.0003,3.0003 0 0 0 3,-3 v -6 a 3.0003,3.0003 0 0 0 -3,-3 v -6 a 3.0003,3.0003 0 0 0 -3,-3 3.0003,3.0003 0 0 0 -3,-3 3.0003,3.0003 0 0 0 -3,-3 h -3 a 3.0003,3.0003 0 0 0 -3,-3 z" /><path
       id="path7"
       style="color:#000000;fill:#ffffff;stroke-linecap:round;stroke-linejoin:round;stroke-miterlimit:5;-inkscape-stroke:none;paint-order:markers fill stroke"
       d="m 26,11 a 3.0003,3.0003 0 0 0 -3,3 h -3 a 3.0003,3.0003 0 0 0 -3,3 3.0003,3.0003 0 0 0 -3,3 3.0003,3.0003 0 0 0 -3,3 v 6 a 3.0003,3.0003 0 0 0 -3,3 v 6 a 3.0003,3.0003 0 0 0 3,3 3.0003,3.0003 0 0 0 3,3 3.0003,3.0003 0 0 0 3,3 3.0003,3.0003 0 0 0 3,3 3.0003,3.0003 0 0 0 3,3 h 18 a 3.0003,3.0003 0 0 0 3,-3 3.0003,3.0003 0 0 0 3,-3 3.0003,3.0003 0 0 0 3,-3 3.0003,3.0003 0 0 0 3,-3 3.0003,3.0003 0 0 0 3,-3 v -6 a 3.0003,3.0003 0 0 0 -3,-3 v -6 a 3.0003,3.0003 0 0 0 -3,-3 3.0003,3.0003 0 0 0 -3,-3 3.0003,3.0003 0 0 0 -3,-3 h -3 a 3.0003,3.0003 0 0 0 -3,-3 z" /></g><g
     id="g16"
     inkscape:label="sharp"><path
       style="vector-effect:non-scaling-stroke;fill:#000000;fill-opacity:0.2;stroke:none;stroke-width:1;stroke-linecap:round;stroke-linejoin:round;stroke-miterlimit:5;stroke-dasharray:none;stroke-opacity:1;-inkscape-stroke:hairline;paint-order:markers fill stroke;filter:url(#filter16)"
       d="m 41,54.999999 v -3 h 3 v -3 h 3 v -3 h 3 v -3 h 3 V 40 h 3 V 34 H 53 V 25 H 50 V 22 H 47 V 19 H 44 V 16 H 38 V 13 H 26 v 3 h -6 v 3 h -3 v 3 h -3 v 3 h -3 v 6 3 H 8 v 6 h 3 v 2.999999 h 3 l -0.0016,3 h 3.001558 l -0.0016,3 h 3.001618 v 3 h 3 v 3 z"
       id="path16"
       sodipodi:nodetypes="cccccccccccccccccccccccccccccccccccccccccccccc" /><path
       style="vector-effect:non-scaling-stroke;fill:#ffffff;fill-opacity:1;stroke:none;stroke-width:1;stroke-linecap:round;stroke-linejoin:round;stroke-miterlimit:5;stroke-dasharray:none;stroke-opacity:1;-inkscape-stroke:hairline;paint-order:markers fill stroke"
       d="m 41,52.999999 v -3 h 3 v -3 h 3 v -3 h 3 v -3 h 3 V 38 h 3 V 32 H 53 V 23 H 50 V 20 H 47 V 17 H 44 V 14 H 38 V 11 H 26 v 3 h -6 v 3 h -3 v 3 h -3 v 3 h -3 v 6 3 H 8 v 6 h 3 v 2.999999 h 3 l -0.0016,3 h 3.001558 l -0.0016,3 h 3.001618 v 3 h 3 v 3 z"
       id="path15"
       sodipodi:nodetypes="cccccccccccccccccccccccccccccccccccccccccccccc" /></g><image
     width="41.999996"
     height="36"
     preserveAspectRatio="none"
     style="stroke:none;stroke-width:2.6;stroke-dasharray:none;stroke-opacity:1;image-rendering:pixelated"
     xlink:href="data:image/png;base64,iVBORw0KGgoAAAANSUhEUgAAAA4AAAAMCAYAAABSgIzaAAAABHNCSVQICAgIfAhkiAAAAOBJREFU&#10;KJGFkKEOgzAQhn8WlvAIGDaFHwIxt8fgEciCwDGJRE6QBTnJQ0zUTa6SBLVhJpFNJm6CtGtHl11y&#10;6V3uvv/+1AGA1TqAHvvti/T+dF06ev+4D3BtQFGaQigH+hZY6JAE+GVUjKyLMpg5QZX4RF1Mtzok&#10;ANa81SFRF1OV+GRc5JcRUdbjV0RZbzhx9YHIUwCAd2xUrYeXNagS/2NTcEYASHBmrWUv3yrxabJ6&#10;bifFzQ4AIDhTVwRnEJypmdxVVw3VPDVSn8nPMWC5ZEuRp3PoH2yDHBtsEz20T2P3Da5sqBX71zwK&#10;AAAAAElFTkSuQmCC&#10;"
     id="image1"
     x="11"
     y="14" /><circle
     style="display:none;vector-effect:non-scaling-stroke;fill:none;stroke:#ffffff;stroke-width:1;stroke-linecap:round;stroke-linejoin:round;stroke-miterlimit:5;stroke-dasharray:none;stroke-opacity:1;-inkscape-stroke:hairline;paint-order:markers fill stroke"
     id="path6"
     cx="32"
     cy="32"
     r="32"
     sodipodi:insensitive="true" /></svg>

<svg xmlns="http://www.w3.org/2000/svg" xmlns:xlink="http://www.w3.org/1999/xlink" xml:space="preserve" width="64" height="64" viewBox="0 0 64 64"><defs><linearGradient id="a"><stop offset="0" style="stop-color:#fff034;stop-opacity:1"/><stop offset="1" style="stop-color:#ffb40c;stop-opacity:1"/></linearGradient><linearGradient xlink:href="#a" id="b" x1="32" x2="32" y1="0" y2="64" gradientUnits="userSpaceOnUse"/><filter id="c" width="1.202" height="1.231" x="-.101" y="-.116" style="color-interpolation-filters:sRGB"><feGaussianBlur stdDeviation="2.025"/></filter></defs><path d="M0 0h64v64H0z" style="fill:url(#b);stroke:none;stroke-width:2.6;stroke-linecap:round;stroke-miterlimit:5;stroke-dasharray:none;stroke-opacity:1;paint-order:markers fill stroke"/><path d="m32 32 12-52H20Zm.003-.004 53.17-4.578L77.79 4.582Zm.004.002L54.54 80.374l18.92-14.766Zm0 .004L-8.273 67.01l19.414 14.11Zm-.004.002L-13.78 4.582l-7.387 22.836Z" style="mix-blend-mode:overlay;vector-effect:non-scaling-stroke;fill:#fff;fill-opacity:.529412;stroke:none;stroke-width:1;stroke-linecap:round;stroke-linejoin:round;stroke-miterlimit:5;stroke-dasharray:none;stroke-opacity:1;-inkscape-stroke:hairline;paint-order:markers fill stroke"/><path d="M41 55v-3h3v-3h3v-3h3v-3h3v-3h3v-6h-3v-9h-3v-3h-3v-3h-3v-3h-6v-3H26v3h-6v3h-3v3h-3v3h-3v9H8v6h3v3h3l-.002 3H17l-.002 3H20v3h3v3z" style="vector-effect:non-scaling-stroke;fill:#000;fill-opacity:.2;stroke:none;stroke-width:1;stroke-linecap:round;stroke-linejoin:round;stroke-miterlimit:5;stroke-dasharray:none;stroke-opacity:1;-inkscape-stroke:hairline;paint-order:markers fill stroke;filter:url(#c)"/><path d="M41 53v-3h3v-3h3v-3h3v-3h3v-3h3v-6h-3v-9h-3v-3h-3v-3h-3v-3h-6v-3H26v3h-6v3h-3v3h-3v3h-3v9H8v6h3v3h3l-.002 3H17l-.002 3H20v3h3v3z" style="vector-effect:non-scaling-stroke;fill:#fff;fill-opacity:1;stroke:none;stroke-width:1;stroke-linecap:round;stroke-linejoin:round;stroke-miterlimit:5;stroke-dasharray:none;stroke-opacity:1;-inkscape-stroke:hairline;paint-order:markers fill stroke"/><image xlink:href="data:image/png;base64,iVBORw0KGgoAAAANSUhEUgAAAA4AAAAMCAYAAABSgIzaAAAABHNCSVQICAgIfAhkiAAAAOBJREFU KJGFkKEOgzAQhn8WlvAIGDaFHwIxt8fgEciCwDGJRE6QBTnJQ0zUTa6SBLVhJpFNJm6CtGtHl11y 6V3uvv/+1AGA1TqAHvvti/T+dF06ev+4D3BtQFGaQigH+hZY6JAE+GVUjKyLMpg5QZX4RF1Mtzok ANa81SFRF1OV+GRc5JcRUdbjV0RZbzhx9YHIUwCAd2xUrYeXNagS/2NTcEYASHBmrWUv3yrxabJ6 bifFzQ4AIDhTVwRnEJypmdxVVw3VPDVSn8nPMWC5ZEuRp3PoH2yDHBtsEz20T2P3Da5sqBX71zwK AAAAAElFTkSuQmCC" width="42" height="36" x="11" y="14" preserveAspectRatio="none" style="stroke:none;stroke-width:2.6;stroke-dasharray:none;stroke-opacity:1;image-rendering:pixelated"/></svg>
